third_party/noto/noto_2/emoji_u1f69d.svg

<svg enable-background="new 0 0 128 128" version="1.1" viewBox="0 0 128 128" xmlns="http://www.w3.org/2000/svg"><rect x="4" y="63.96" width="119.99" height="36.13" fill="#82AEC0"/><rect x="4.18" y="69.37" width="119.82" height="3.53" fill="#757575"/><polygon points="4 99.54 4 102.48 4 102.48 11.15 111.23 11.15 124 37.1 124 37.1 111.23 44.25 102.48 83.74 102.48 90.89 111.23 90.89 124 116.85 124 116.85 111.23 124 102.48 124 99.54" fill="#607D8B"/><path d="M112.74,124H94.99v-7.89c0-2.7,2.19-4.89,4.89-4.89h7.96c2.7,0,4.89,2.19,4.89,4.89V124z" fill="#82AEC0"/><path d="M33,124H15.25v-7.89c0-2.7,2.19-4.89,4.89-4.89h7.96c2.7,0,4.89,2.19,4.89,4.89V124z" fill="#82AEC0"/><path d="m13.51 64s9.91 2.05 15.06 9.04c4.17 5.65 6.37 9.45 17.48 9.45h77.95v-18.54l-110.49 0.05z" fill="#455A64"/><path d="m28.96 62.51-11.77-5.86c-3.43-2.23-4.64-4.38-4.5-7.14 0.13-2.66 1.26-5.91 2.46-9.77 4.37-14.05 14.58-35.74 38.6-35.74s70.24 0 70.24 0v58.15l-95.03 0.36z" fill="#E0E0E0"/><path d="m28.68 62.51 95.32-0.36v-12.64h-59.34c-4.75 0-8.03-5.06-6.41-9.84 2.96-8.76 9.08-17.97 20.82-17.97h44.93v-10.28h-50.86c-13.38 0-22.27 14.59-26.88 26.5-2.73 7.04-9.19 11.59-16.3 11.59h-17.27c-0.15 2.08 0.46 3.93 2.33 5.68 0.52 0.5 13.66 7.32 13.66 7.32z" fill="#F44336"/><path d="m13.51 53.34s0.82 1.87 4.11 3.6c5.44 2.87 11.06 5.67 11.06 5.67l95.32-0.36v-5.11h-90.9s-19.59-3.8-19.59-3.8z" fill="#C62828"/><path d="m124 79.17h-75.48c-10.26 0-14.22-4.05-17.27-11.29-0.74-1.76-2.67-5.62-2.67-5.62h95.42v16.91z" fill="#E0E0E0"/><path d="m36.1 70.67c-0.69-1.08-1.42-2.64-1.94-3.84-0.36-0.83 0.21-1.78 1.06-1.78h88.77v-2.8h-96.02s2.25 3.15 3.27 5.62c2.92 7.04 6.79 11.03 16.38 11.27-4.87-1.18-8.44-3.69-11.52-8.47z" fill="#BDBDBD"/><path d="m100.38 67.55-57.54 1.75s-5.12 0.15-5.83-1.83c-0.54-1.5 0.44-2.41 3.83-2.41s42.92 0.22 42.92 0.22 11.09 0.05 16.62 2.27z" fill="#fff"/><path d="M124,36.97V17.43l-69.47,0.58c-8.91,7.2-12.03,13.67-14.47,18.95H124z" fill="#BAE2FD"/><path d="m124 16.62h-68.48c-6.29 0-13.76 13.07-16.97 19.33-0.75 1.47 0.24 3.26 1.8 3.26h83.59 0.06v-22.59zm-80.74 19.58c-0.57 0-1-0.24-0.68-1.18 0.19-0.55 5.12-10.6 10.78-14.24 0.51-0.33 1.16 0.06 1.16 0.69v13.91c0 0.45-0.34 0.81-0.76 0.81h-10.5zm13.14-0.82v-14.94c0-0.45 0.34-0.81 0.76-0.81h19.12c0.42 0 0.76 0.36 0.76 0.81v14.94c0 0.45-0.34 0.81-0.76 0.81h-19.12c-0.42 0.01-0.76-0.36-0.76-0.81zm22.51 0v-14.94c0-0.45 0.34-0.81 0.76-0.81h19.13c0.42 0 0.76 0.36 0.76 0.81v14.94c0 0.45-0.34 0.81-0.76 0.81h-19.13c-0.42 0.01-0.76-0.36-0.76-0.81zm42.4 0.82h-19.12c-0.42 0-0.76-0.36-0.76-0.81v-14.95c0-0.45 0.34-0.81 0.76-0.81h19.12c0.42 0 0.76 0.36 0.76 0.81v14.94c-0.01 0.45-0.34 0.82-0.76 0.82z" fill="#37474F"/><path d="m27.4 34.99c9.92-14.91 17.9-22.8 17.9-22.8l-12.45-0.05-2.48 0.86c-8.15 7.58-12.65 18.48-15.22 26.75-0.01 0 7.55 2.3 12.25-4.76z" fill="#BAE2FD"/><path d="m29.22 36.2c9.94-15.89 17.93-23.15 21.33-25.2 0.31-0.18 0.5-0.87-0.61-0.87h-15.89c-1.16 0.83-2.59 1.84-3.69 2.87l11.07 0.07c0.47 0 0.58 0.58 0.24 0.92-3.12 3.19-6.09 5.64-14.32 17.95-2.51 3.76-5.05 4.32-7.07 4.74-1.16 0.24-2.93 0.3-4.24 0.31-1.1 2.85-2.71 8.76-2.71 8.76 3.03 0.31 9.52 0.63 15.89-9.55z" fill="#37474F"/><path d="m124 6.22v-2.22h-70.52c-6.49 0-10.49 1.63-10.49 1.63l81.01 0.59z" fill="#BDBDBD"/><path d="m21.44 38.4c-0.71-0.79-2.23-0.57-3.39 0.48s-1.52 2.54-0.81 3.33 2.23 0.57 3.39-0.48 1.52-2.54 0.81-3.33z" fill="#FFCA28"/></svg>

<?xml version="1.0" encoding="utf-8"?>
<!-- Generator: Adobe Illustrator 25.2.3, SVG Export Plug-In . SVG Version: 6.00 Build 0)  -->
<svg version="1.1" id="Layer_4" xmlns="http://www.w3.org/2000/svg" xmlns:xlink="http://www.w3.org/1999/xlink" x="0px" y="0px"
	 viewBox="0 0 128 128" style="enable-background:new 0 0 128 128;" xml:space="preserve">
<g>
	<rect x="4" y="63.96" style="fill:#82AEC0;" width="119.99" height="36.13"/>
	<rect x="4.18" y="69.37" style="fill:#757575;" width="119.82" height="3.53"/>
	<polygon style="fill:#607D8B;" points="4,99.54 4,102.48 4,102.48 11.15,111.23 11.15,124 37.1,124 37.1,111.23 44.25,102.48 
		83.74,102.48 90.89,111.23 90.89,124 116.85,124 116.85,111.23 124,102.48 124,99.54 	"/>
	<path style="fill:#82AEC0;" d="M112.74,124H94.99v-7.89c0-2.7,2.19-4.89,4.89-4.89h7.96c2.7,0,4.89,2.19,4.89,4.89V124z"/>
	<path style="fill:#82AEC0;" d="M33,124H15.25v-7.89c0-2.7,2.19-4.89,4.89-4.89h7.96c2.7,0,4.89,2.19,4.89,4.89V124z"/>
</g>
<g>
	<path style="fill:#455A64;" d="M13.51,64c0,0,9.91,2.05,15.06,9.04c4.17,5.65,6.37,9.45,17.48,9.45c2.95,0,77.95,0,77.95,0V63.95
		L13.51,64z"/>
	<g>
		<path style="fill:#E0E0E0;" d="M28.96,62.51l-11.77-5.86c-3.43-2.23-4.64-4.38-4.5-7.14c0.13-2.66,1.26-5.91,2.46-9.77
			C19.52,25.69,29.73,4,53.75,4s70.24,0,70.24,0l0,58.15L28.96,62.51z"/>
	</g>
	<path style="fill:#F44336;" d="M28.68,62.51L124,62.15V49.51H64.66c-4.75,0-8.03-5.06-6.41-9.84c2.96-8.76,9.08-17.97,20.82-17.97
		c16.68,0,44.93,0,44.93,0V11.42c0,0-37.59,0-50.86,0c-13.38,0-22.27,14.59-26.88,26.5c-2.73,7.04-9.19,11.59-16.3,11.59H12.69
		c-0.15,2.08,0.46,3.93,2.33,5.68C15.54,55.69,28.68,62.51,28.68,62.51z"/>
	<path style="fill:#C62828;" d="M13.51,53.34c0,0,0.82,1.87,4.11,3.6c5.44,2.87,11.06,5.67,11.06,5.67L124,62.25v-5.11
		c0,0-83.33,0-90.9,0S13.51,53.34,13.51,53.34z"/>
	<g>
		<path style="fill:#E0E0E0;" d="M124,79.17H48.52c-10.26,0-14.22-4.05-17.27-11.29c-0.74-1.76-2.67-5.62-2.67-5.62v0H124V79.17z"/>
	</g>
	<path style="fill:#BDBDBD;" d="M36.1,70.67c-0.69-1.08-1.42-2.64-1.94-3.84c-0.36-0.83,0.21-1.78,1.06-1.78l88.77,0v-2.8H27.97
		c0,0,2.25,3.15,3.27,5.62c2.92,7.04,6.79,11.03,16.38,11.27C42.75,77.96,39.18,75.45,36.1,70.67z"/>
	<path style="fill:#FFFFFF;" d="M100.38,67.55l-57.54,1.75c0,0-5.12,0.15-5.83-1.83c-0.54-1.5,0.44-2.41,3.83-2.41
		s42.92,0.22,42.92,0.22S94.85,65.33,100.38,67.55z"/>
	<g>
		<path style="fill:#BAE2FD;" d="M124,36.97V17.43l-69.47,0.58c-8.91,7.2-12.03,13.67-14.47,18.95H124z"/>
	</g>
	<path style="fill:#37474F;" d="M124,16.62H55.52c-6.29,0-13.76,13.07-16.97,19.33c-0.75,1.47,0.24,3.26,1.8,3.26l83.59,0v0H124
		V16.62z M43.26,36.2c-0.57,0-1-0.24-0.68-1.18c0.19-0.55,5.12-10.6,10.78-14.24c0.51-0.33,1.16,0.06,1.16,0.69v13.91
		c0,0.45-0.34,0.81-0.76,0.81H43.26z M56.4,35.38V20.44c0-0.45,0.34-0.81,0.76-0.81h19.12c0.42,0,0.76,0.36,0.76,0.81v14.94
		c0,0.45-0.34,0.81-0.76,0.81H57.16C56.74,36.2,56.4,35.83,56.4,35.38z M78.91,35.38V20.44c0-0.45,0.34-0.81,0.76-0.81H98.8
		c0.42,0,0.76,0.36,0.76,0.81v14.94c0,0.45-0.34,0.81-0.76,0.81H79.67C79.25,36.2,78.91,35.83,78.91,35.38z M121.31,36.2h-19.12
		c-0.42,0-0.76-0.36-0.76-0.81V20.44c0-0.45,0.34-0.81,0.76-0.81h19.12c0.42,0,0.76,0.36,0.76,0.81v14.94
		C122.06,35.83,121.73,36.2,121.31,36.2z"/>
	<g>
		<path style="fill:#BAE2FD;" d="M27.4,34.99c9.92-14.91,17.9-22.8,17.9-22.8l-12.45-0.05L30.37,13
			c-8.15,7.58-12.65,18.48-15.22,26.75C15.14,39.75,22.7,42.05,27.4,34.99z"/>
	</g>
	<path style="fill:#37474F;" d="M29.22,36.2C39.16,20.31,47.15,13.05,50.55,11c0.31-0.18,0.5-0.87-0.61-0.87H34.05
		c-1.16,0.83-2.59,1.84-3.69,2.87l11.07,0.07c0.47,0,0.58,0.58,0.24,0.92c-3.12,3.19-6.09,5.64-14.32,17.95
		c-2.51,3.76-5.05,4.32-7.07,4.74c-1.16,0.24-2.93,0.3-4.24,0.31c-1.1,2.85-2.71,8.76-2.71,8.76C16.36,46.06,22.85,46.38,29.22,36.2
		z"/>
	<path style="fill:#BDBDBD;" d="M124,6.22V4c0,0-48.19,0-70.52,0c-6.49,0-10.49,1.63-10.49,1.63L124,6.22z"/>
	<path style="fill:#FFCA28;" d="M21.44,38.4c-0.71-0.79-2.23-0.57-3.39,0.48c-1.16,1.05-1.52,2.54-0.81,3.33
		c0.71,0.79,2.23,0.57,3.39-0.48C21.79,40.68,22.15,39.19,21.44,38.4z"/>
</g>
</svg>
